X: 313
T:Burn the Stubble
M:6/8
L:1/8
C:Declan Masterson
Z:Chas Blacker
K:D mix
AB|cAA A2B|cAA A2B|cAA A2G|FDD DAB|cAA A2B|cAA d2e|fed ge^c|d3 def|
~g3 gab|agf efg|fdd ded|cAA Aef|g3 gab|agf efg|fed ge^c|d3 d

